ui/StatusQ/src/assets/img/icons/emojiCategories/travel.svg

<svg fill="none" height="20" viewBox="0 0 20 20" width="20" xmlns="http://www.w3.org/2000/svg"><g clip-rule="evenodd" fill="#939ba1" fill-rule="evenodd"><path d="m11.2468 6.03149c-1.49235 0-2.70212 1.20978-2.70212 2.7021 0 1.49231 1.20977 2.70211 2.70212 2.70211 1.4923 0 2.7021-1.2098 2.7021-2.70211 0-1.49232-1.2098-2.7021-2.7021-2.7021zm-1.2021 2.7021c0-.6639.5382-1.2021 1.2021-1.2021s1.2021.5382 1.2021 1.2021c0 .66391-.5382 1.2021-1.2021 1.2021s-1.2021-.53819-1.2021-1.2021z"/><path d="m7.03269 16.7958c-.25188.0322-.44958.2348-.49803.4836-.11916.6118-.41614 1.196-.89094 1.6699-.38471.3839-.93404.5993-1.42594.7323-.51331.1389-1.07555.2165-1.58189.2606-.51006.0444-.98479.0565-1.33065.0577-.17353.0006-.316087-.0015-.416203-.0039-.050091-.0011-.089651-.0023-.117254-.0033l-.03229-.0012-.009105-.0004-.002737-.0001-.230375-.0102c-.259115-.0115-.4665635-.2185-.4780663-.4771l-.0102261-.2299-.00011617-.0028-.00037045-.0091-.00118766-.0322c-.00095103-.0275-.00216883-.067-.0033364-.117-.00233404-.0999-.00447661-.2422-.00386826-.4154.00121257-.3452.01336344-.819.05785564-1.3281.0441677-.5054.1219307-1.0665.2610277-1.5789.133295-.4909.349052-1.0392.733762-1.4232.46925-.4683 1.04641-.7633 1.6516-.8849.25048-.0504.45301-.2512.48222-.5045.00377-.0327.00786-.0664.01231-.1011.06344-.495.19846-1.1916.48342-2.033.06488-.1916.13746-.3905.21865-.596.10414-.2637-.06815-.55952-.35077-.58714-.469-.04584-.93421-.09038-1.28227-.12346l-.86091-.08114c-.29997-.0281-.507341-.31232-.442069-.60589l.061469-.27648c.36641-1.64795 1.03143-2.78022 1.89607-3.50326.86613-.72427 1.85646-.97426 2.75253-.99863.72669-.01977 1.40747.10756 1.95057.25946.17876.04999.37161.00519.50713-.12145 2.3447-2.19087 5.0574-3.241161 7.1991-3.744387 1.1249-.264295 2.1012-.3799153 2.7995-.4294908.3494-.0248126.6303-.03315218.8264-.03518603.0981-.00101728.1751-.00045825.229.00041363.027.0004359.0482.00095012.0634.00138499l.0183.00057297.0057.00027079.0019.00001031.0014.0014453v-.00138932l.2316.00939666c.2614.0106061.4705.2202205.4801.4811355l.0085.23117.0001.003358.0002.005667.0005.018164c.0003.015116.0008.036206.0011.063025.0006.053631.0009.130208-.0005.227749-.0029.19503-.0123.47424-.0385.82174-.0524.69433-.1718 1.66528-.4401 2.7844-.5106 2.12988-1.5688 4.82808-3.7613 7.16584-.127.1354-.1718.3281-.1215.5066.1533.5435.2824 1.2264.2625 1.9556-.0245.8943-.2749 1.8827-1.0006 2.7472s-1.8589 1.5267-3.51 1.8924l-.277.0614c-.2942.0651-.5789-.1418-.6071-.4412l-.0813-.8593c-.0331-.3474-.0778-.8117-.1237-1.2798-.0268-.2734-.31502-.4393-.57022-.3364-.20318.082-.39976.1555-.5891.2213-.83587.291-1.52679.4324-2.01776.501-.03101.0043-.06123.0083-.09063.0121zm-2.49511-8.54415c.19593.01982.38486-.07658.48736-.24441.32997-.5403.71738-1.10277 1.1721-1.68013.23763-.30172.07626-.75177-.30822-.75765-.05744-.00088-.1151-.00058-.1729.00099-.64591.01757-1.28275.19263-1.82864.64911-.3307.27654-.65573.67953-.93071 1.26769-.13667.29232.07379.61626.39549.64742l.34454.03352c.28685.02804.57584.05663.84098.08346zm7.17472 7.16395c.0267.2637.0553.551.0833.8361l.0335.3438c.0313.3211.3558.5312.6487.3948.5893-.2745.9931-.5989 1.2701-.9289.4574-.5449.6328-1.1805.6504-1.8252.0017-.0602.0019-.1203.0009-.1802-.0066-.3838-.4579-.5441-.7596-.306-.5797.4575-1.1437.8478-1.6848 1.1807-.1668.1026-.2623.2903-.2425.4849zm-4.86011-.1084c-.14704.0191-.29312-.0349-.39797-.1395l-1.63434-1.6312c-.10315-.103-.15725-.2458-.1405-.3905.00295-.0255.00616-.0519.00966-.0791.05189-.405.16604-1.0037.41646-1.7432.49962-1.47533 1.54711-3.52728 3.75228-5.72819 1.53602-1.53305 3.28762-2.49567 4.91572-3.09889.2561-.09487.5349.04372.6504.29075.2486.53152.5928 1.02954 1.0324 1.46834.5155.51449 1.1126.89794 1.7497 1.15035.2642.10469.4202.39179.3228.65839-.6054 1.65727-1.5837 3.45532-3.1614 5.03005-2.2074 2.203-4.2533 3.2617-5.72097 3.7724-.73552.256-1.32977.3758-1.73113.4318-.0216.003-.04263.0058-.06311.0085zm11.35711-11.69664c.1437-.73601.2166-1.37403.2531-1.85838.0095-.12568-.0946-.23001-.2206-.2211l-.0039.00028c-.5134.03645-1.1983.11273-1.9889.26938-.2981.05905-.4662.37596-.3138.63833.1571.27034.3515.52497.5834.7564.3231.3225.6914.57248 1.0845.74997.262.1183.5512-.05315.6062-.33488zm-13.62787 11.81684c-.68107-.6798-1.78532-.6798-2.46639 0-.10251.1023-.23341.3402-.34605.7551-.10683.3935-.17427.8577-.21441 1.317-.01448.1657-.02519.328-.033.4827-.01424.2822.2174.5134.50007.4991.15505-.0077.31768-.0184.48369-.0329.46013-.04.92526-.1074 1.31952-.214.41566-.1124.65407-.2431.75657-.3454.68108-.6797.68108-1.7818 0-2.4616z"/></g></svg>

<svg width="20" height="20" viewBox="0 0 20 20" fill="none" xmlns="http://www.w3.org/2000/svg">
<path fill-rule="evenodd" clip-rule="evenodd" d="M11.2468 6.03149C9.75445 6.03149 8.54468 7.24127 8.54468 8.73359C8.54468 10.2259 9.75445 11.4357 11.2468 11.4357C12.7391 11.4357 13.9489 10.2259 13.9489 8.73359C13.9489 7.24127 12.7391 6.03149 11.2468 6.03149ZM10.0447 8.73359C10.0447 8.06969 10.5829 7.53149 11.2468 7.53149C11.9107 7.53149 12.4489 8.06969 12.4489 8.73359C12.4489 9.3975 11.9107 9.93569 11.2468 9.93569C10.5829 9.93569 10.0447 9.3975 10.0447 8.73359Z" fill="#939BA1"/>
<path fill-rule="evenodd" clip-rule="evenodd" d="M7.03269 16.7958C6.78081 16.828 6.58311 17.0306 6.53466 17.2794C6.4155 17.8912 6.11852 18.4754 5.64372 18.9493C5.25901 19.3332 4.70968 19.5486 4.21778 19.6816C3.70447 19.8205 3.14223 19.8981 2.63589 19.9422C2.12583 19.9866 1.6511 19.9987 1.30524 19.9999C1.13171 20.0005 0.989153 19.9984 0.889037 19.996C0.838946 19.9949 0.799386 19.9937 0.771783 19.9927L0.739493 19.9915L0.730388 19.9911L0.727651 19.991L0.497276 19.9808C0.238161 19.9693 0.0307125 19.7623 0.0192097 19.5037L0.0089836 19.2738L0.00886743 19.271L0.00849698 19.2619L0.00730932 19.2297C0.00635829 19.2022 0.00514049 19.1627 0.00397292 19.1127C0.00163888 19.0128 -0.000503693 18.8705 0.000104659 18.6973C0.00131723 18.3521 0.0134681 17.8783 0.0579603 17.3692C0.102128 16.8638 0.179891 16.3027 0.318988 15.7903C0.452283 15.2994 0.66804 14.7511 1.05275 14.3671C1.522 13.8988 2.09916 13.6038 2.70435 13.4822C2.95483 13.4318 3.15736 13.231 3.18657 12.9777C3.19034 12.945 3.19443 12.9113 3.19888 12.8766C3.26232 12.3816 3.39734 11.685 3.6823 10.8436C3.74718 10.652 3.81976 10.4531 3.90095 10.2476C4.00509 9.9839 3.8328 9.68808 3.55018 9.66046C3.08118 9.61462 2.61597 9.57008 2.26791 9.537L1.407 9.45586C1.10703 9.42776 0.899659 9.14354 0.964931 8.84997L1.0264 8.57349C1.39281 6.92554 2.05783 5.79327 2.92247 5.07023C3.7886 4.34596 4.77893 4.09597 5.675 4.0716C6.40169 4.05183 7.08247 4.17916 7.62557 4.33106C7.80433 4.38105 7.99718 4.33625 8.1327 4.20961C10.4774 2.01874 13.1901 0.968449 15.3318 0.465223C16.4567 0.200928 17.433 0.0853077 18.1313 0.0357322C18.4807 0.0109196 18.7616 0.00258002 18.9577 0.00054617C19.0558 -0.000471105 19.1328 8.79199e-05 19.1867 0.000959804C19.2137 0.0013957 19.2349 0.00190992 19.2501 0.00234479L19.2684 0.00291776L19.2741 0.00318855L19.276 0.00319886L19.2774 0.00464416L19.2774 0.00325484L19.509 0.0126515C19.7704 0.0232576 19.9795 0.232872 19.9891 0.493787L19.9976 0.724957L19.9977 0.728315L19.9979 0.733982L19.9984 0.752146C19.9987 0.767262 19.9992 0.788352 19.9995 0.815171C20.0001 0.868802 20.0004 0.945379 19.999 1.04292C19.9961 1.23795 19.9867 1.51716 19.9605 1.86466C19.9081 2.55899 19.7887 3.52994 19.5204 4.64906C19.0098 6.77894 17.9516 9.47714 15.7591 11.8149C15.6321 11.9503 15.5873 12.143 15.6376 12.3215C15.7909 12.865 15.92 13.5479 15.9001 14.2771C15.8756 15.1714 15.6252 16.1598 14.8995 17.0243C14.1738 17.8888 13.0406 18.551 11.3895 18.9167L11.1125 18.9781C10.8183 19.0432 10.5336 18.8363 10.5054 18.5369L10.4241 17.6776C10.391 17.3302 10.3463 16.8659 10.3004 16.3978C10.2736 16.1244 9.98538 15.9585 9.73018 16.0614C9.527 16.1434 9.33042 16.2169 9.14108 16.2827C8.30521 16.5737 7.61429 16.7151 7.12332 16.7837C7.09231 16.788 7.06209 16.792 7.03269 16.7958ZM4.53758 8.25165C4.73351 8.27147 4.92244 8.17507 5.02494 8.00724C5.35491 7.46694 5.74232 6.90447 6.19704 6.32711C6.43467 6.02539 6.2733 5.57534 5.88882 5.56946C5.83138 5.56858 5.77372 5.56888 5.71592 5.57045C5.07001 5.58802 4.43317 5.76308 3.88728 6.21956C3.55658 6.4961 3.23155 6.89909 2.95657 7.48725C2.8199 7.77957 3.03036 8.10351 3.35206 8.13467L3.6966 8.16819C3.98345 8.19623 4.27244 8.22482 4.53758 8.25165ZM11.7123 15.4156C11.739 15.6793 11.7676 15.9666 11.7956 16.2517L11.8291 16.5955C11.8604 16.9166 12.1849 17.1267 12.4778 16.9903C13.0671 16.7158 13.4709 16.3914 13.7479 16.0614C14.2053 15.5165 14.3807 14.8809 14.3983 14.2362C14.4 14.176 14.4002 14.1159 14.3992 14.056C14.3926 13.6722 13.9413 13.5119 13.6396 13.75C13.0599 14.2075 12.4959 14.5978 11.9548 14.9307C11.788 15.0333 11.6925 15.221 11.7123 15.4156ZM6.85219 15.3072C6.70515 15.3263 6.55907 15.2723 6.45422 15.1677L4.81988 13.5365C4.71673 13.4335 4.66263 13.2907 4.67938 13.146C4.68233 13.1205 4.68554 13.0941 4.68904 13.0669C4.74093 12.6619 4.85508 12.0632 5.1055 11.3237C5.60512 9.84837 6.65261 7.79642 8.85778 5.59551C10.3938 4.06246 12.1454 3.09984 13.7735 2.49662C14.0296 2.40175 14.3084 2.54034 14.4239 2.78737C14.6725 3.31889 15.0167 3.81691 15.4563 4.25571C15.9718 4.7702 16.5689 5.15365 17.206 5.40606C17.4702 5.51075 17.6262 5.79785 17.5288 6.06445C16.9234 7.72172 15.9451 9.51977 14.3674 11.0945C12.16 13.2975 10.1141 14.3562 8.64643 14.8669C7.91091 15.1229 7.31666 15.2427 6.9153 15.2987C6.8937 15.3017 6.87267 15.3045 6.85219 15.3072ZM18.2093 3.61056C18.353 2.87455 18.4259 2.23653 18.4624 1.75218C18.4719 1.6265 18.3678 1.52217 18.2418 1.53108L18.2379 1.53136C17.7245 1.56781 17.0396 1.64409 16.249 1.80074C15.9509 1.85979 15.7828 2.1767 15.9352 2.43907C16.0923 2.70941 16.2867 2.96404 16.5186 3.19547C16.8417 3.51797 17.21 3.76795 17.6031 3.94544C17.8651 4.06374 18.1543 3.89229 18.2093 3.61056ZM4.58143 15.4274C3.90036 14.7476 2.79611 14.7476 2.11504 15.4274C2.01253 15.5297 1.88163 15.7676 1.76899 16.1825C1.66216 16.576 1.59472 17.0402 1.55458 17.4995C1.5401 17.6652 1.52939 17.8275 1.52158 17.9822C1.50734 18.2644 1.73898 18.4956 2.02165 18.4813C2.1767 18.4736 2.33933 18.4629 2.50534 18.4484C2.96547 18.4084 3.4306 18.341 3.82486 18.2344C4.24052 18.122 4.47893 17.9913 4.58143 17.889C5.26251 17.2093 5.26251 16.1072 4.58143 15.4274Z" fill="#939BA1"/>
</svg>
